static/logos/readymag-glyph-color.svg

<svg width="50" height="50" viewBox="0 0 50 50" fill="none" xmlns="http://www.w3.org/2000/svg">
<g clip-path="url(#clip0_1_1312)">
<path d="M25 50C38.8071 50 50 38.8071 50 25C50 11.1929 38.8071 0 25 0C11.1929 0 0 11.1929 0 25C0 38.8071 11.1929 50 25 50Z" fill="black"/>
<path fill-rule="evenodd" clip-rule="evenodd" d="M36.0909 36.9869V33.1019C36.0909 32.3269 35.6672 31.9375 34.9653 31.9375C34.1316 31.9375 33.4447 32.5563 33.4153 33.3069V36.9819H32.0066V33.0975C32.0066 32.3225 31.5828 31.9325 30.8809 31.9325C30.0472 31.9325 29.3603 32.5513 29.3309 33.3019V36.9769H27.9222V30.9037H29.1897L29.3309 31.4206L29.3997 31.4838L29.4672 31.4206C29.7503 31.0306 30.4522 30.7725 31.0172 30.7725C32.0309 30.7725 32.7622 31.1725 33.1328 31.8056L33.4834 31.4156C33.8347 31.0256 34.5409 30.7675 35.1022 30.7675C36.6522 30.7675 37.4997 31.6737 37.4997 32.9656V36.9769H36.0909V36.9869ZM14.6509 18.0706H14.3922V22.2625H13.0078V12.5H16.3709C17.8822 12.5 19.2078 13.5037 19.2078 15.2394C19.2078 16.9106 17.7941 17.9781 16.2828 17.9781L19.3928 21.9894V22.2581H17.8141L14.6509 18.0706ZM16.4491 16.6869C17.2097 16.6869 17.9066 16.1556 17.9066 15.2931C17.9066 14.4306 17.2097 13.8994 16.4491 13.8994H14.4216V16.6869H16.4491Z" fill="white" stroke="white" stroke-width="0.2"/>
<path fill-rule="evenodd" clip-rule="evenodd" d="M12.5703 36.6702L36.4641 12.7765L37.2222 13.5334L13.3284 37.4271L12.5703 36.6702Z" fill="white" stroke="white" stroke-width="0.6"/>
</g>
<defs>
<clipPath id="clip0_1_1312">
<rect width="50" height="50" fill="white"/>
</clipPath>
</defs>
</svg>

<svg xmlns="http://www.w3.org/2000/svg" width="64" height="64" fill="none" viewBox="0 0 50 50"><g clip-path="url(#a)"><path fill="#000" d="M25 50c13.807 0 25-11.193 25-25S38.807 0 25 0 0 11.193 0 25s11.193 25 25 25Z"/><path fill="#fff" fill-rule="evenodd" stroke="#fff" stroke-width=".2" d="M36.09 36.987v-3.885c0-.775-.423-1.164-1.125-1.164-.833 0-1.52.618-1.55 1.369v3.675h-1.408v-3.885c0-.775-.424-1.165-1.126-1.165-.834 0-1.52.62-1.55 1.37v3.675h-1.409v-6.073h1.268l.14.517.07.063.067-.063c.283-.39.985-.648 1.55-.648 1.014 0 1.745.4 2.116 1.033l.35-.39c.352-.39 1.058-.649 1.62-.649 1.55 0 2.397.907 2.397 2.199v4.01h-1.41v.01ZM14.65 18.07h-.258v4.191h-1.384V12.5h3.363c1.511 0 2.837 1.004 2.837 2.74 0 1.67-1.414 2.738-2.925 2.738l3.11 4.011v.27h-1.579l-3.163-4.188Zm1.8-1.384c.76 0 1.457-.531 1.457-1.394 0-.862-.697-1.394-1.458-1.394h-2.027v2.788h2.027Z" clip-rule="evenodd"/><path fill="#fff" fill-rule="evenodd" stroke="#fff" stroke-width=".6" d="m12.57 36.67 23.894-23.894.758.757-23.894 23.894-.758-.757Z" clip-rule="evenodd"/></g><defs><clipPath id="a"><path fill="#fff" d="M0 0h50v50H0z"/></clipPath></defs></svg>
